svg/UnitedNations-Flags/flag-hn.svg

<?xml version="1.0" encoding="UTF-8" standalone="no"?>
<svg height="256" id="svg4274" inkscape:output_extension="org.inkscape.output.svg.inkscape" inkscape:version="0.46" sodipodi:docname="Flag_of_Honduras.svg" sodipodi:version="0.32" version="1.0" viewBox="0 0 72 36" width="256" xmlns="http://www.w3.org/2000/svg" xmlns:cc="http://creativecommons.org/ns#" xmlns:dc="http://purl.org/dc/elements/1.1/" xmlns:inkscape="http://www.inkscape.org/namespaces/inkscape" xmlns:rdf="http://www.w3.org/1999/02/22-rdf-syntax-ns#" xmlns:sodipodi="http://sodipodi.sourceforge.net/DTD/sodipodi-0.dtd" xmlns:svg="http://www.w3.org/2000/svg" xmlns:xlink="http://www.w3.org/1999/xlink">
  <metadata>
    <rdf:RDF xmlns:cc="http://web.resource.org/cc/" xmlns:dc="http://purl.org/dc/elements/1.1/" xmlns:rdf="http://www.w3.org/1999/02/22-rdf-syntax-ns#">
      <cc:Work rdf:about="">
        <dc:title></dc:title>
        <dc:description></dc:description>
        <dc:subject>
          <rdf:Bag>
            <rdf:li>unsorted</rdf:li>
          </rdf:Bag>
        </dc:subject>
        <dc:publisher>
          <cc:Agent rdf:about="http://www.openclipart.org/">
            <dc:title>Open Clip Art Library, Source: Wikimedia Commons, Source: Wikimedia Commons, Source: Wikimedia Commons, Source: Wikimedia Commons</dc:title>
          </cc:Agent>
        </dc:publisher>
        <dc:creator>
          <cc:Agent>
            <dc:title></dc:title>
          </cc:Agent>
        </dc:creator>
        <dc:rights>
          <cc:Agent>
            <dc:title></dc:title>
          </cc:Agent>
        </dc:rights>
        <dc:date></dc:date>
        <dc:format>image/svg+xml</dc:format>
        <dc:type rdf:resource="http://purl.org/dc/dcmitype/StillImage"/>
        <cc:license rdf:resource="http://en.wikipedia.org/wiki/Public_domain"/>
        <dc:language>en</dc:language>
      </cc:Work>
    </rdf:RDF>
  </metadata>
  <defs id="defs4290">
    <inkscape:perspective id="perspective4294" inkscape:persp3d-origin="500 : 166.66667 : 1" inkscape:vp_x="0 : 250 : 1" inkscape:vp_y="0 : 1000 : 0" inkscape:vp_z="1000 : 250 : 1" sodipodi:type="inkscape:persp3d"/>
  </defs>
  <sodipodi:namedview bordercolor="#666666" borderopacity="1.0" gridtolerance="10.0" guidetolerance="10.0" id="base" inkscape:current-layer="svg4274" inkscape:cx="500" inkscape:cy="250" inkscape:pageopacity="0.0" inkscape:pageshadow="2" inkscape:window-height="722" inkscape:window-width="927" inkscape:window-x="57" inkscape:window-y="138" inkscape:zoom="0.559" objecttolerance="10.0" pagecolor="#ffffff" showgrid="false"/>
  <rect height="36" id="rect4276" style="fill:#0047ba" width="72" x="0" y="0"/>
  <rect height="12" id="rect4278" style="fill:#ffffff" width="72" x="0" y="12"/>
  <path d="M 36,16 L 36.449028,17.381966 L 37.902113,17.381966 L 36.726543,18.236068 L 37.17557,19.618034 L 36,18.763932 L 34.824429,19.618034 L 35.273457,18.236068 L 34.097887,17.381966 L 35.550972,17.381966 L 36,16 z" id="path1888" style="fill:#0047ba"/>
  <use height="36" id="use4281" transform="translate(10,3)" width="72" x="0" xlink:href="#path1888" y="0"/>
  <use height="36" id="use4283" transform="translate(0,-6)" width="72" x="0" xlink:href="#use2395" y="0"/>
  <use height="36" id="use4285" transform="translate(-20,6)" width="72" x="0" xlink:href="#use2397" y="0"/>
  <use height="36" id="use4287" transform="translate(0,-6)" width="72" x="0" xlink:href="#use2399" y="0"/>
</svg>

<svg height="256" viewBox="0 0 72 36" width="256" xmlns="http://www.w3.org/2000/svg" xmlns:xlink="http://www.w3.org/1999/xlink"><path fill="#0047ba" d="m0 0h72v36h-72z"/><path fill="#fff" d="m0 12h72v12h-72z"/><path d="m36 16l.449 1.382h1.453l-1.176.854.449 1.382-1.176-.854-1.176.854.449-1.382-1.176-.854h1.453l.449-1.382" id="0" fill="#0047ba"/><use height="36" transform="translate(10 3)" width="72" xlink:href="#0"/></svg>
